X: 30922
T: COTILLION No. 8. WINTHROP HALL SETT tune 2
C:
%R: jig
B: Elias Howe "The Musician's Companion" Part 3 1844 p.92 #2
S: http://imslp.org/wiki/The_Musician's_Companion_(Howe,_Elias)
Z: 2015 John Chambers <jc:trillian.mit.edu>
M: 6/8
L: 1/8
K: D
% - - - - - - - - - - - - - - - - - - - - - - - - - - - - -
d/e/ |\
f>ed A<FA | BdB A<F d/e/ | {de}f>ed A<FA | Bdc d2 ::\
a |\
f2a e2a | d>cd c2a | f2a e2a | ^g>fg a2a |\
b2b a2a | g>fg Hf2 d/e/ | f>ed A<FA | Bdc d2 :|
% - - - - - - - - - - Dance description - - - - - - - - - -
%%begintext align
%% First 2 forward and back,
%% cross over,
%% chassa de chassa,
%% cross back,
%% balance 4 and turn partners.
%%endtext
% - - - - - - - - - - - - - - - - - - - - - - - - - - - - -
%%sep 1 1 300
